X:920
T: New Delights of Inchicore (with piano acc.)
C: BB
R: jig
Q: 1/8=320
M: 6/8
L: 1/8
V: 1 program 1 110 %fiddle
V: 2 volume=70 clef=bass m=D program 1 01
K: G
[V:1] A | "G"DGA BAG | "D"ABA AFE | "G"DGB d^cd | "A"ed^c "D"d2 A |
[V:2] z|G,,2[GB,D]B,,2[GB,D]|D,,2[AFD]A,,2[AFD]|G,,2[GB,D]D,,2[GB,D]|A,,2[A^CE][D,3A,3F3]|
%
[V:1] "G"DGA BAG | "D"ABA ABc | "G"ded "Em"BGE | "D"DEF "G"G2 :|
[V:2] G,,2[GB,D]B,,2[GB,D]|D,,2[AFD]A,,2[AFD]|G,,2[GB,D]E,2[EGB]|[D,3A,3F3][G,,2D,2B,2]:|
%
[V:1] A | "G"dgg fgg | "D"fga gdc | "G"BGB "C"cBc | "D"de^c d2 A |
[V:2] z|G,,2[GB,D]B,,2[GB,D]|D,,2[AFD]A,,2[AFD]|G,,2[GB,D]C,2[EGC]|D,2[AFD]A,,2[AFD]|
%
[V:1] "G"dgg aga | "Em"bag "D"fdc |"G"Bcd "Em"BGE | "D"DEF "G"G2 :|
[V:2] G,,2[GB,D]D,2[GB,D]|E,2[EGB]D,2[AFD]|G,,2[GB,D]E,2[EGB]|D,2[AFD][G,,2D,2B,2]:|

%%%%%%%%%%%%%%%%

